X:1
T:Title
%%score { 1 | 2 }
L:1/8
M:6/8
K:Bb
V:1 treble nm="Grand Piano"
V:2 bass 
V:1
 z3 z2[Q:1/4=87] [DF] | [Fd][Ec][DB] [DB][FA][EG] | [EG][DF][DF] [DF][B,D][DF] | FAc cAE | %4
[M:5/8] D[EG][DF] [DF]2 |[M:1/8] [DF] |[M:3/4] [Fd][Ec] [DB][DB] [FA][EG] | %7
 [EG][DF] [DF][DF] [B,D][DF] | FG AA d>c | cG A [B,DB]3 | [Ac]2 z .[FA]3 | [FA][GB] [CG] [A,F]3 | %12
 [Fd]3 [DB]3 |[M:5/8] BcA [DB]2 |] %14
V:2
 z3 z2 [B,,B,] | [B,,B,][B,,F,][B,,F,] [B,,F,][B,,B,][B,,B,] | %2
 [B,,B,][B,,B,][B,,B,] [B,,B,][B,,F,][B,,B,] | [F,A,C][F,CF][F,EF] [F,EF][F,CF][F,C] | %4
[M:5/8] [B,,F,B,][B,,B,][B,,B,] [B,,B,]2 |[M:1/8] [B,,B,] | %6
[M:3/4] [B,,B,][B,,F,] [B,,F,][B,,F,] [B,,B,][B,,B,] | %7
 [B,,B,][B,,B,] [B,,B,][B,,B,] [B,,F,][B,,B,] | [F,A,C][F,B,F] [F,CF][F,CF] [F,F]>[F,A,E] | %9
 [F,A,E][F,B,E] [F,CE] B,,3 | F,2 z .F,3 | C,C, C, F,,3 | [B,,B,]3 [B,,F,]3 | %13
[M:5/8] [F,B,D][F,A,E][F,F] [B,,F,]2 |] %14

